svgs/ultimate_guitar.svg

<svg width="192" height="192" viewBox="0 0 192 192" fill="none" xmlns="http://www.w3.org/2000/svg">
<path d="M29 112.317C29.5114 128.642 38.8292 156.858 68.3977 167.393C82.7159 172.495 98.0568 169.562 108.795 163.312C119.534 157.063 134.403 141.727 142.545 119.243M142.545 119.243L118.66 110.078C115.313 108.794 115.124 104.14 118.356 102.59L157.137 83.9898C159.852 82.6872 163 84.6617 163 87.6681V121.149C163 124.013 160.12 125.986 157.441 124.958L142.545 119.243ZM123.091 28.1622L150.216 22L126.67 64.2816C126.67 64.2816 114.125 41.5013 86 41C57.875 40.4987 46.5 61.2816 46.5 61.2816L34.625 29.1421L47.3636 30.6929" stroke="black" stroke-width="12" stroke-linecap="round" stroke-linejoin="round"/>
</svg>

<svg xmlns="http://www.w3.org/2000/svg" width="192" height="192" fill="none"><path stroke="#000" stroke-linecap="round" stroke-linejoin="round" stroke-width="12" d="M29 112.317c.511 16.325 9.83 44.541 39.398 55.076 14.318 5.102 29.659 2.169 40.397-4.081 10.739-6.249 25.608-21.585 33.75-44.069m0 0-23.885-9.165c-3.347-1.284-3.536-5.938-.304-7.488l38.781-18.6c2.715-1.303 5.863.672 5.863 3.678v33.481c0 2.864-2.88 4.837-5.559 3.809zm-19.454-91.08L150.216 22 126.67 64.282S114.125 41.502 86 41 46.5 61.282 46.5 61.282l-11.875-32.14 12.739 1.55"/></svg>
